!!!OTL: Die Vogelhochzeit (3-40), S. 105f
!!!id: K1174
**kern
*clefG2
*k[f#]
*G:
{8b
=1
8dd
8b
8dd
8b
=2
8cc
8a
8cc
8a
=3
8b
8g
8dd
8b
=4
8a
8dd
8dd}
=5
{16d
16d
=6
8g
8g
8g
16b
16b
=7
8a
8a
8a
16cc
16cc
=8
8b
8g
8a
8f#
=9
8g
8f#
8g
8b
=10
4dd}
8r
=11
{16d
16d
=12
8g
8g
8g
16b
16b
=13
8a
8a
8a
16cc
16cc
=14
8b
8g
8a
8f#
=15
4g}
8r
=16
{16d
16d
=17
8g
8g
8g
16b
16b
=18
8a
8a
8a
16cc
16cc
=19
8b
8g
8a
8f#
=20
8g
8f#
8g
8b
=21
8dd}
4r
=22
{16d
16d
=23
8g
8g
8g
16b
16b
=24
8a
8a
8a
16cc
16cc
=25
8b
8g
8a
8f#
=26
4g}
8r
==
*-
!!!minrhy: 16
!!!meters: 2/4 ]  ZZ[5
!!!cut: Die Vogelhochzeit (3-40), S. 105f
!!!reg: Luxemburg
!!!trd: KINTZELE, Guillaume: An der Ucht, Bd. 3 Luxemburg 1928
!!!rhy1: X_  X_X_X_X_  X_X_X_X_  X_X_X_X_  X_X_X_
!!!rhy2: XX  X_X_X_XX  X_X_X_XX  X_X_X_X_  X_X_X_X_  X__0_
!!!key: K1174  16  G 2/4 ]  ZZ[5
!!!mod: SECHSTONSKALA DUR ?]  AMBITUS[8
!!!kad: 55151
!!!akz: 5432_12315_1231_12315_1231_
!!!fot: 'a__b__bv_b__bv_
!!!for: 'a__b__bw_bv_bw_
!!!fok: '~a_~a_^a_~a_^a_
!! PHRAS[AUFTAKTIG]
!!!fkt: Hochzeitslied?
!!!bem: in der Quelle mit einer 2. Stimme versehen
!! KINTZELE
!! PR[2] 2K[0] 2G[11] 3K[7] 3G[5] 4A[0] 4Ü[0] 5A[2] 6K[0] 6G[7]
!! 7K[0] 7G[0] 8A[0] MEHR[0] SI[32] ABS[44] SR[11] SP[20]
!! ST[12] 2k[14] 2g[48] 3k[0] 3g[5] 4d[0] 4ü[0] 5d[0] 6k[0] 6g[0]
!! 7k[0] 7g[0] 8d[0] mehr[0] si[66] dm[-34] sr[61] sp[5]
!! 1F[15] 2F[31] 3F[23] 4F[0] LF[0] 2P[19] 3P[13] 4P[0] TRI[0] DF[5] AB[48]
!! TF[0] U3K[0] U3[0] U4[0] U4Ü[0] U5[2] U6K[0] U6[0] U7K[0] U7[0]
!! N1[13] N2K[0] N2[16] N3K[0] N3[22] N4[18] N4Ü[0] N5[20] N6K[0] N6[9]
!!!n7k: 0] N7[0] O1[0] O2K[0] O2[0] O3K[0] O3[0] HÖ[0
